img/icons/inc_ur_needs.svg

<svg xmlns="http://www.w3.org/2000/svg" width="153" height="50" viewBox="0 0 153 50"><path d="M30.497 36.669l5.764-5.83a.784.784 0 0 1 1.12 0l2.387 2.415a.806.806 0 0 1 0 1.131l-5.764 5.83a.78.78 0 0 1-1.119 0l-.387-.39-1.479 1.495a3.281 3.281 0 0 1-2.35.985h-.015l-3.509-.07v2.749h3.429c1.833 0 3.324 1.507 3.324 3.361v.854a.796.796 0 0 1-.792.801H10.847a.796.796 0 0 1-.791-.801v-.854c0-1.854 1.492-3.361 3.325-3.361h3.428v-4.112a15.695 15.695 0 0 1-8.023-5.383 15.654 15.654 0 0 1-3.375-9.77c0-2.307.498-4.543 1.478-6.653a5.137 5.137 0 0 1-.212-1.459c0-1.049.316-2.024.858-2.834a.88.88 0 0 1-.08-.069l-.278-.281a2.532 2.532 0 0 1-.033-3.511L3.872 7.604a2.453 2.453 0 0 1-.919.179 2.425 2.425 0 0 1-1.734-.726A2.474 2.474 0 0 1 .5 5.303c0-.662.255-1.285.718-1.754l2.297-2.323A2.424 2.424 0 0 1 5.25.5c.655 0 1.271.258 1.734.726a2.48 2.48 0 0 1 .718 1.755c0 .323-.061.638-.178.93l3.27 3.306a2.455 2.455 0 0 1 1.718-.699c.662 0 1.285.26 1.754.734l9.795 9.86.009.01a.1.1 0 0 1 .01.011.292.292 0 0 1 .041.045l.011.014c.013.015.024.032.036.049l.011.017.028.049c.006.009.01.019.014.028a.428.428 0 0 1 .02.043c.006.013.01.027.015.04l.011.03 1.154 3.71 1.654 1.673a1.668 1.668 0 0 1 0 2.339l-2.183 2.208a1.62 1.62 0 0 1-1.157.483c-.418 0-.837-.16-1.156-.483l-1.658-1.675-3.633-1.209-.018-.007c-.015-.006-.031-.011-.046-.018l-.029-.015a.233.233 0 0 1-.039-.019c-.011-.006-.023-.012-.033-.02a.32.32 0 0 1-.031-.019l-.037-.027c-.008-.007-.017-.012-.024-.021l-.038-.033c-.004-.004-.009-.007-.013-.013l-2.494-2.491a4.948 4.948 0 0 1-1.868.777 9.018 9.018 0 0 0-.56 3.131c0 3.884 2.515 7.358 6.155 8.562a4.124 4.124 0 0 1 4.062-.854l11.65-11.783a.788.788 0 0 1 1.119 0l2.387 2.415a.808.808 0 0 1 0 1.133L25.145 37.619v3.015l3.531.068a1.716 1.716 0 0 0 1.224-.514l1.478-1.496-.881-.891a.805.805 0 0 1 0-1.132zM5.865 2.359a.866.866 0 0 0-1.231-.002L2.338 4.682a.872.872 0 0 0-.255.621c0 .236.09.456.255.623a.864.864 0 0 0 1.23 0l2.297-2.323a.88.88 0 0 0 .255-.622.88.88 0 0 0-.255-.622zm.678 2.823L5.129 6.611l3.132 3.168 1.413-1.43-3.131-3.167zm17.155 21.064c.021.021.054.02.075 0l2.183-2.208a.053.053 0 0 0 0-.074l-1.231-1.246L22.467 25l1.231 1.246zm-2.565-2.16l2.693-2.723-.676-2.175-4.144 4.191 2.127.707zm-3.6-1.481l4.859-4.916-9.244-9.303a.892.892 0 0 0-1.27-.002l-3.582 3.624a.914.914 0 0 0 0 1.282l.278.281.035.041a4.947 4.947 0 0 1 3.08-1.075c2.764 0 5.013 2.274 5.013 5.07 0 1.17-.396 2.25-1.059 3.109l1.89 1.889zm-2.414-4.998c0-1.913-1.539-3.47-3.43-3.47-1.891 0-3.43 1.557-3.43 3.47 0 1.913 1.539 3.468 3.43 3.468 1.891 0 3.43-1.555 3.43-3.468zm-4.644 8.112c0-1.059.157-2.098.461-3.1a4.996 4.996 0 0 1-3.08-1.751 13.993 13.993 0 0 0-.863 4.851c0 3.218 1.048 6.252 3.032 8.771a14.099 14.099 0 0 0 6.784 4.71v-1.767c0-.648.145-1.263.405-1.813-4.01-1.562-6.739-5.509-6.739-9.901zm13.087 11.714c0-1.442-1.16-2.615-2.585-2.615-1.426 0-2.585 1.173-2.585 2.615v7.551h5.17v-7.551zm12.19-12.807l-1.268-1.283-10.782 10.904c.46.402.831.905 1.082 1.473l10.968-11.094zM13.38 46.584c-.96 0-1.741.79-1.741 1.761v.054h18.675v-.054c0-.971-.781-1.761-1.741-1.761H13.38zm20.064-8.067l4.645-4.698-1.268-1.283-4.645 4.699 1.268 1.282zm-12.468-1.219a.792.792 0 0 1 .792.801.817.817 0 0 1-.231.567.798.798 0 0 1-.561.233.794.794 0 0 1-.791-.8c0-.211.085-.417.232-.566a.79.79 0 0 1 .559-.235zM10.899 17.607c0-.443.354-.801.791-.801h.001c.437 0 .792.358.792.801 0 .441-.355.8-.792.8a.797.797 0 0 1-.792-.8z" fill="#2E8DD6"/><path d="M38.5 38.5L48 48l83-27" fill="none" stroke="#B8B8B8" stroke-width="1.5" stroke-linecap="round" stroke-dasharray="0.5,3"/><path d="M132 19h2c.392 3.527 3.473 6.608 7 7v2c0 .467.532 1.007 1 1.007.468 0 1-.54 1-1.007v-2c3.527-.392 6.608-3.473 7-7h2c.467 0 1.008-.532 1.008-1 0-.468-.541-1-1.008-1h-2c-.392-3.527-3.473-6.608-7-7V8c0-.468-.532-1.007-1-1.007-.468 0-1 .539-1 1.007v2c-3.527.392-6.608 3.473-7 7h-2c-.468 0-1.008.532-1.008 1 0 .468.379.846.847.846L132 19zm4 0h5v5c-2.592-.373-4.494-2.561-4.866-5.154L136 19zm7 5v-5h5c-.373 2.593-2.562 4.493-5.154 4.866L143 24zm5-7h-5v-5c2.592.373 4.493 2.561 4.866 5.153L148 17zm-7-5v5h-5c.373-2.592 2.561-4.493 5.153-4.866L141 12z" fill="#2E8DD6"/></svg>

<svg version="1.1" xmlns="http://www.w3.org/2000/svg" xmlns:xlink="http://www.w3.org/1999/xlink" width="153" height="50" viewBox="0 0 153 50"><g id="-icon_inc_ur_nee"><path id="Shape-33" d="M30.497,36.669 C30.497,36.669 36.261,30.839 36.261,30.839 C36.570,30.525 37.071,30.525 37.381,30.839 C37.381,30.839 39.768,33.254 39.768,33.254 C40.077,33.566 40.077,34.073 39.768,34.385 C39.768,34.385 34.004,40.215 34.004,40.215 C33.850,40.372 33.647,40.450 33.445,40.450 C33.242,40.450 33.039,40.372 32.885,40.215 C32.885,40.215 32.498,39.825 32.498,39.825 C32.498,39.825 31.019,41.320 31.019,41.320 C30.392,41.955 29.557,42.305 28.669,42.305 C28.663,42.305 28.659,42.305 28.654,42.305 C28.654,42.305 25.145,42.235 25.145,42.235 L25.145,44.984 C25.145,44.984 28.574,44.984 28.574,44.984 C30.407,44.984 31.898,46.491 31.898,48.345 C31.898,48.345 31.898,49.199 31.898,49.199 C31.898,49.642 31.543,50.000 31.106,50.000 C31.106,50.000 10.847,50.000 10.847,50.000 C10.411,50.000 10.056,49.642 10.056,49.199 C10.056,49.199 10.056,48.345 10.056,48.345 C10.056,46.491 11.548,44.984 13.381,44.984 C13.381,44.984 16.809,44.984 16.809,44.984 C16.809,44.984 16.809,40.872 16.809,40.872 C13.666,39.985 10.831,38.086 8.786,35.489 C6.578,32.681 5.411,29.304 5.411,25.719 C5.411,23.412 5.909,21.176 6.889,19.066 C6.752,18.603 6.677,18.113 6.677,17.607 C6.677,16.558 6.993,15.583 7.535,14.773 C7.507,14.751 7.480,14.729 7.455,14.704 C7.455,14.704 7.177,14.423 7.177,14.423 C6.222,13.457 6.212,11.893 7.144,10.912 C7.144,10.912 3.872,7.604 3.872,7.604 C3.578,7.723 3.265,7.783 2.953,7.783 C2.325,7.783 1.697,7.542 1.219,7.057 C0.755,6.589 0.500,5.966 0.500,5.303 C0.500,4.641 0.755,4.018 1.218,3.549 C1.218,3.549 3.515,1.226 3.515,1.226 C3.978,0.758 4.594,0.500 5.250,0.500 C5.905,0.500 6.521,0.758 6.984,1.226 C7.447,1.694 7.702,2.318 7.702,2.981 C7.702,3.304 7.641,3.619 7.524,3.911 C7.524,3.911 10.794,7.217 10.794,7.217 C11.259,6.767 11.866,6.518 12.512,6.518 C13.174,6.518 13.797,6.778 14.266,7.252 C14.266,7.252 24.061,17.112 24.061,17.112 C24.061,17.112 24.070,17.122 24.070,17.122 C24.074,17.126 24.077,17.129 24.080,17.133 C24.095,17.146 24.109,17.162 24.121,17.178 C24.125,17.182 24.129,17.188 24.132,17.192 C24.145,17.207 24.156,17.224 24.168,17.241 C24.172,17.247 24.175,17.253 24.179,17.258 C24.189,17.276 24.199,17.291 24.207,17.307 C24.213,17.316 24.217,17.326 24.221,17.335 C24.228,17.348 24.235,17.363 24.241,17.378 C24.247,17.391 24.251,17.405 24.256,17.418 C24.260,17.428 24.264,17.438 24.267,17.448 C24.267,17.448 25.421,21.158 25.421,21.158 C25.421,21.158 27.075,22.831 27.075,22.831 C27.713,23.476 27.713,24.525 27.075,25.170 C27.075,25.170 24.892,27.378 24.892,27.378 C24.573,27.701 24.154,27.861 23.735,27.861 C23.317,27.861 22.898,27.701 22.579,27.378 C22.579,27.378 20.921,25.703 20.921,25.703 C20.921,25.703 17.288,24.494 17.288,24.494 C17.282,24.492 17.277,24.489 17.270,24.487 C17.255,24.481 17.239,24.476 17.224,24.469 C17.215,24.465 17.205,24.459 17.195,24.454 C17.182,24.449 17.169,24.443 17.156,24.435 C17.145,24.429 17.133,24.423 17.123,24.415 C17.112,24.409 17.102,24.403 17.092,24.396 C17.079,24.387 17.067,24.378 17.055,24.369 C17.047,24.362 17.038,24.357 17.031,24.348 C17.018,24.337 17.006,24.327 16.993,24.315 C16.989,24.311 16.984,24.308 16.980,24.302 C16.980,24.302 14.486,21.811 14.486,21.811 C13.932,22.190 13.299,22.458 12.618,22.588 C12.248,23.592 12.058,24.643 12.058,25.719 C12.058,29.603 14.573,33.077 18.213,34.281 C18.949,33.620 19.917,33.217 20.977,33.217 C21.430,33.217 21.866,33.291 22.275,33.427 C22.275,33.427 33.925,21.644 33.925,21.644 C34.233,21.333 34.735,21.333 35.044,21.644 C35.044,21.644 37.431,24.059 37.431,24.059 C37.740,24.373 37.740,24.879 37.431,25.192 C37.431,25.192 25.145,37.619 25.145,37.619 L25.145,40.634 C25.145,40.634 28.676,40.702 28.676,40.702 C29.138,40.701 29.572,40.519 29.900,40.188 C29.900,40.188 31.378,38.692 31.378,38.692 C31.378,38.692 30.497,37.801 30.497,37.801 C30.187,37.488 30.187,36.982 30.497,36.669 zM5.865,2.359 C5.701,2.192 5.482,2.100 5.250,2.100 C5.017,2.100 4.799,2.192 4.634,2.357 C4.634,2.357 2.338,4.682 2.338,4.682 C2.173,4.847 2.083,5.068 2.083,5.303 C2.083,5.539 2.173,5.759 2.338,5.926 C2.677,6.269 3.229,6.269 3.568,5.926 C3.568,5.926 5.865,3.603 5.865,3.603 C6.029,3.437 6.120,3.216 6.120,2.981 C6.120,2.746 6.029,2.525 5.865,2.359 zM6.543,5.182 L5.129,6.611 L8.261,9.779 L9.674,8.349 L6.543,5.182 zM23.698,26.246 C23.719,26.267 23.752,26.266 23.773,26.246 C23.773,26.246 25.956,24.038 25.956,24.038 C25.976,24.018 25.976,23.983 25.956,23.964 C25.956,23.964 24.725,22.718 24.725,22.718 L22.467,25.000 C22.467,25.000 23.698,26.246 23.698,26.246 zM21.133,24.086 L23.826,21.363 L23.150,19.188 L19.006,23.379 L21.133,24.086 zM17.533,22.605 L22.392,17.689 C22.392,17.689 13.148,8.386 13.148,8.386 C12.977,8.214 12.752,8.118 12.512,8.118 C12.273,8.118 12.048,8.214 11.878,8.384 C11.878,8.384 8.296,12.008 8.296,12.008 C7.946,12.361 7.946,12.937 8.296,13.290 C8.296,13.290 8.574,13.571 8.574,13.571 C8.586,13.585 8.598,13.598 8.609,13.612 C9.460,12.939 10.528,12.537 11.689,12.537 C14.453,12.537 16.702,14.811 16.702,17.607 C16.702,18.777 16.306,19.857 15.643,20.716 C15.643,20.716 17.533,22.605 17.533,22.605 zM15.119,17.607 C15.119,15.694 13.580,14.137 11.689,14.137 C9.798,14.137 8.259,15.694 8.259,17.607 C8.259,19.520 9.798,21.075 11.689,21.075 C13.580,21.075 15.119,19.520 15.119,17.607 zM10.475,25.719 C10.475,24.660 10.632,23.621 10.936,22.619 C9.707,22.431 8.623,21.789 7.856,20.868 C7.283,22.427 6.993,24.053 6.993,25.719 C6.993,28.937 8.041,31.971 10.025,34.490 C11.770,36.709 14.155,38.357 16.809,39.200 C16.809,39.200 16.809,37.433 16.809,37.433 C16.809,36.785 16.954,36.170 17.214,35.620 C13.204,34.058 10.475,30.111 10.475,25.719 zM23.562,37.433 C23.562,35.991 22.402,34.818 20.977,34.818 C19.551,34.818 18.392,35.991 18.392,37.433 C18.392,37.433 18.392,44.984 18.392,44.984 L23.562,44.984 C23.562,44.984 23.562,37.433 23.562,37.433 zM35.752,24.626 L34.484,23.343 C34.484,23.343 23.702,34.247 23.702,34.247 C24.162,34.649 24.533,35.152 24.784,35.720 C24.784,35.720 35.752,24.626 35.752,24.626 zM13.380,46.584 C12.420,46.584 11.639,47.374 11.639,48.345 C11.639,48.345 11.639,48.399 11.639,48.399 L30.314,48.399 C30.314,48.399 30.314,48.345 30.314,48.345 C30.314,47.374 29.533,46.584 28.573,46.584 C28.573,46.584 13.380,46.584 13.380,46.584 zM33.444,38.517 L38.089,33.819 L36.821,32.536 L32.176,37.235 L33.444,38.517 zM20.976,37.298 C21.185,37.298 21.389,37.383 21.537,37.533 C21.684,37.681 21.768,37.888 21.768,38.099 C21.768,38.310 21.684,38.515 21.537,38.666 C21.389,38.814 21.185,38.899 20.976,38.899 C20.768,38.899 20.564,38.814 20.417,38.666 C20.270,38.515 20.185,38.310 20.185,38.099 C20.185,37.888 20.270,37.682 20.417,37.533 C20.565,37.383 20.768,37.298 20.976,37.298 zM10.899,17.607 C10.899,17.164 11.253,16.806 11.690,16.806 C11.690,16.806 11.691,16.806 11.691,16.806 C12.128,16.806 12.483,17.164 12.483,17.607 C12.483,18.048 12.128,18.407 11.691,18.407 C11.254,18.407 10.899,18.048 10.899,17.607 z" fill="#2E8DD6" /><g id="Shape-41" ><path id="Shape-41-stroke" d="M38.500,38.500 L48.000,48.000 L131.000,21.000 " fill="none" stroke="#B8B8B8" stroke-width="1.5" stroke-linecap="round" stroke-dasharray="0.5,3" /></g><path id="Shape-22" d="M132.000,19.000 C132.000,19.000 134.000,19.000 134.000,19.000 C134.392,22.527 137.473,25.608 141.000,26.000 C141.000,26.000 141.000,28.000 141.000,28.000 C141.000,28.467 141.532,29.007 142.000,29.007 C142.468,29.007 143.000,28.467 143.000,28.000 C143.000,28.000 143.000,26.000 143.000,26.000 C146.527,25.608 149.608,22.527 150.000,19.000 C150.000,19.000 152.000,19.000 152.000,19.000 C152.467,19.000 153.008,18.468 153.008,18.000 C153.008,17.532 152.467,17.000 152.000,17.000 C152.000,17.000 150.000,17.000 150.000,17.000 C149.608,13.473 146.527,10.392 143.000,10.000 C143.000,10.000 143.000,8.000 143.000,8.000 C143.000,7.532 142.468,6.993 142.000,6.993 C141.532,6.993 141.000,7.532 141.000,8.000 C141.000,8.000 141.000,10.000 141.000,10.000 C137.473,10.392 134.392,13.473 134.000,17.000 C134.000,17.000 132.000,17.000 132.000,17.000 C131.532,17.000 130.992,17.532 130.992,18.000 C130.992,18.468 131.371,18.846 131.839,18.846 C131.839,18.846 132.000,19.000 132.000,19.000 zM136.000,19.000 L141.000,19.000 C141.000,19.000 141.000,24.000 141.000,24.000 C138.408,23.627 136.506,21.439 136.134,18.846 C136.134,18.846 136.000,19.000 136.000,19.000 zM143.000,24.000 L143.000,19.000 C143.000,19.000 148.000,19.000 148.000,19.000 C147.627,21.593 145.438,23.493 142.846,23.866 C142.846,23.866 143.000,24.000 143.000,24.000 zM148.000,17.000 L143.000,17.000 C143.000,17.000 143.000,12.000 143.000,12.000 C145.592,12.373 147.493,14.561 147.866,17.153 C147.866,17.153 148.000,17.000 148.000,17.000 zM141.000,12.000 L141.000,17.000 C141.000,17.000 136.000,17.000 136.000,17.000 C136.373,14.408 138.561,12.507 141.153,12.134 C141.153,12.134 141.000,12.000 141.000,12.000 z" fill="#2E8DD6" /></g></svg>
